!!!!SEGMENT: pl-kk--kk-i-2--018_anonim--magnificat-quinti-toni.krn
!!!cenid: 16xx:1631
!!!COM: Anonim
!!!COM-rismid: pe30004985
!!!CDT:
!!!CNT:
!!!OTL: [Magnificat] Quinti Toni
!!!PDT:
!!!AGN: Sacred
!!!SMS-siglum: PL-Kk
!!!SMS-shelfmark: Kk.I.2
!!!SMS-shelfwork: 018 W
!!!NIFC-rismid: 300258034
!!!URL-scan: http://repozytorium.nifc.pl/skany/pl-kk-nut--i-2
!!!ONB-nifc: skany: C: 0041-0042; A: 0143-0145; T: 0246-0247; B: 0345-0346;
!!!AIN: 1 alto 1 bass 2 tenor
!!!key: a:aeo
**kern	**text	**kern	**text	**kern	**text	**kern	**text
*part4	*part4	*part3	*part3	*part2	*part2	*part1	*part1
*staff4	*staff4	*staff3	*staff3	*staff2	*staff2	*staff1	*staff1
*I"BASVS	*	*I"TENOR	*	*I"ALTVS	*	*I"DISCANTVS	*
*I'B	*	*I'T	*	*I'A	*	*I'S	*
*Ibass	*	*Itenor	*	*Itenor	*	*Ialto	*
*ICvox	*	*ICvox	*	*ICvox	*	*ICvox	*
*clefF3	*	*clefC4	*	*clefC3	*	*clefC1	*
*k[]	*	*k[]	*	*k[]	*	*k[]	*
*a:aeo	*	*a:aeo	*	*a:aeo	*	*a:aeo	*
*M2/1	*	*M2/1	*	*M2/1	*	*M2/1	*
*met(C|)	*	*met(C|)	*	*met(C|)	*	*met(C|)	*
=1-	=1-	=1-	=1-	=1-	=1-	=1-	=1-
!!LO:TX:t=P:problem:all\middle:global
!LO:TX:t=Non plus ultra.	!	!	!	!	!	!	!
00r	.	00r	.	0f	Et	0f	Et
=2-	=2-	=2-	=2-	=2-	=2-	=2-	=2-
.	.	.	.	1f	e-	1a	e-
.	.	.	.	2e\	-xul-	1.cc	-xul-
.	.	.	.	2.f\	-ta-	.	.
=3-	=3-	=3-	=3-	=3-	=3-	=3-	=3-
0r	.	0r	.	.	.	.	.
.	.	.	.	4e\	.	.	.
.	.	.	.	4d/	.	4b\	-ta-
.	.	.	.	4c/	.	4a\	-uit
.	.	.	.	1d	.	1b	.
=4-	=4-	=4-	=4-	=4-	=4-	=4-	=4-
0F	Et	0F	Et	0c	-uit	0cc	.
=5-	=5-	=5-	=5-	=5-	=5-	=5-	=5-
1F	e-	1A	e-	00r	.	0r	.
2E/	-xul-	1.c	-xul-	.	.	.	.
2.F/	-ta-	.	.	.	.	.	.
=6-	=6-	=6-	=6-	=6-	=6-	=6-	=6-
.	.	.	.	.	.	1r	.
4E/	.	.	.	.	.	.	.
4D/	.	4B/	-ta-	.	.	.	.
4C/	.	4A/	-uit	.	.	.	.
1D	.	1B	.	.	.	1f	ſpi-
=7-	=7-	=7-	=7-	=7-	=7-	=7-	=7-
0C	-uit	1c	.	00r	.	2.e/	-ri-
.	.	.	.	.	.	4f/	-tus
.	.	2r	.	.	.	2g/	.
.	.	2c\	ſpi-	.	.	1a\	.
=8-	=8-	=8-	=8-	=8-	=8-	=8-	=8-
00r	.	1d	-ri-	.	.	.	.
.	.	.	.	.	.	4g/	.
.	.	.	.	.	.	4f/	.
.	.	1e	-tus	.	.	2g\	.
.	.	.	.	.	.	2.b\	.
=9-	=9-	=9-	=9-	=9-	=9-	=9-	=9-
.	.	2c\	me-	2r	.	.	.
.	.	.	.	.	.	4a\	me-
.	.	2A/	.	2c/	ſpi-	1a	.
.	.	1B	.	1d	-ri-	.	.
.	.	.	.	.	.	2g/	.
=10-	=10-	=10-	=10-	=10-	=10-	=10-	=10-
!LO:TX:t=P:problem=0r poprawiona na 1r	!	!	!	!	!	!	!
1r	.	0A	-us	1e	-tus	0a	-us
2r	.	.	.	2c/	.	.	.
2F/	ſpi-	.	.	2A/	me-	.	.
=11-	=11-	=11-	=11-	=11-	=11-	=11-	=11-
1G	-ri-	00r	.	1B	-us	00r	.
1A	-tus	.	.	2.A/	.	.	.
.	.	.	.	4B/	.	.	.
=12-	=12-	=12-	=12-	=12-	=12-	=12-	=12-
2F/	.	.	.	2c/	.	.	.
2D/	.	.	.	1d	.	.	.
1E	me-	.	.	.	.	.	.
.	.	.	.	2c/	.	.	.
=13-	=13-	=13-	=13-	=13-	=13-	=13-	=13-
2D/	.	00r	.	2f\	.	0r	.
2C/	.	.	.	2.g\	.	.	.
*lig	*	*	*	*	*	*	*
1F	us	.	.	.	.	.	.
.	.	.	.	4f\	.	.	.
.	.	.	.	1f\	.	.	.
=14-	=14-	=14-	=14-	=14-	=14-	=14-	=14-
1G	.	.	.	.	.	2r	.
.	.	.	.	2e/	.	2g/	ſpi-
*Xlig	*	*	*	*custos:f	*	*	*
!	!	!	!	!LO:LB:g=original	!	!	!
1F	.	.	.	1f	.	2.a/	-ri-
.	.	.	.	.	.	4b/	-tus
=15-	=15-	=15-	=15-	=15-	=15-	=15-	=15-
*	*	*	*ij	*	*	*	*
00r	.	1f	ſpi-	00r	.	2cc\	.
.	.	.	.	.	.	2dd\	.
*	*	*	*	*	*	*custos:ee	*
!	!	!	!	!	!	!LO:PB:g=original	!
.	.	2e\	-ri-	.	.	2ee\	me-
.	.	2.f\	-tus	.	.	2.dd\	.
=16-	=16-	=16-	=16-	=16-	=16-	=16-	=16-
.	.	.	.	.	.	.	.
.	.	4e\	me-	.	.	4cc\	.
.	.	4d\	.	.	.	1cc	.
.	.	4c\	.	.	.	.	.
.	.	1d	.	.	.	.	.
.	.	.	.	.	.	2b\	.
=17-	=17-	=17-	=17-	=17-	=17-	=17-	=17-
1.F	In	1c	-us	1r	.	1cc	-us
*	*	*	*Xij	*	*	*	*
.	.	1r	.	1.f	In	2r	.
2F/	de-	.	.	.	.	1cc\	In
=18-	=18-	=18-	=18-	=18-	=18-	=18-	=18-
1F	-o	1.c	In	.	.	.	.
.	.	.	.	2f\	de-	2cc\	de-
2r	.	.	.	0f	-o	0cc	-o
*custos:F	*	*	*	*	*	*	*
!LO:PB:g=original	!	!	!	!	!	!	!
2F/	ſa-	2c\	De-	.	.	.	.
*	*	*custos:c	*	*	*	*	*
=19-	=19-	=19-	=19-	=19-	=19-	=19-	=19-
!	!	!LO:LB:g=original	!	!	!	!	!
1F	-lu-	1c	-o	.	.	.	.
1G	-ta-	1r	.	0r	.	00r	.
=20-	=20-	=20-	=20-	=20-	=20-	=20-	=20-
1E	-ri	2r	.	.	.	.	.
.	.	2c\	ſa-	.	.	.	.
1F	me-	1c	-lu-	2r	.	.	.
.	.	.	.	2f\	ſa-	.	.
=21-	=21-	=21-	=21-	=21-	=21-	=21-	=21-
1D	-o	1d	-ta-	1f	-lu-	.	.
1G	.	1B	-ri	1g	-ta-	1r	.
=22-	=22-	=22-	=22-	=22-	=22-	=22-	=22-
1C	.	1c	me-	1e	-ri	2r	.
.	.	.	.	.	.	2cc\	ſa-
1F	.	1A	-o	1f	me-	1cc	-lu-
=23-	=23-	=23-	=23-	=23-	=23-	=23-	=23-
0r	.	1d	.	1d	-o	1dd	-ta-
.	.	1G	.	1g	.	1b	-ri
=24-	=24-	=24-	=24-	=24-	=24-	=24-	=24-
1r	.	0r	.	1c	.	1cc	me-
2r	.	.	.	1f	.	1a	-o
2F/	ſa-	.	.	.	.	.	.
=25-	=25-	=25-	=25-	=25-	=25-	=25-	=25-
0F	-lu-	1r	.	2r	.	2r	.
.	.	.	.	2f\	ſa-	2.a/	me-
.	.	2r	.	2f\	-lu-	.	.
.	.	.	.	.	.	4b/	.
*	*	*	*ij	*	*	*	*
.	.	2c\	ſa-	2f\	-ta-	2.cc\	.
=26-	=26-	=26-	=26-	=26-	=26-	=26-	=26-
1F	-ta-	1c	-lu-	1f	-ri	.	.
.	.	.	.	.	.	4b/	.
.	.	.	.	.	.	4a/	.
.	.	.	.	.	.	4g/	.
1D	-ri	1d	-ta-	2r	.	2f/	.
.	.	.	.	2f\	me-	2.b\	.
=27-	=27-	=27-	=27-	=27-	=27-	=27-	=27-
0E	me-	1B	-ri	0e	.	.	.
.	.	.	.	.	.	4a/	.
.	.	.	.	.	.	1a	.
.	.	1c	me-	.	.	.	.
.	.	.	.	.	.	2g/	.
=28-	=28-	=28-	=28-	=28-	=28-	=28-	=28-
2F/	.	00A\l	-o	2c/	.	00a\l	-o
*	*	*	*Xij	*	*	*	*
1D	.	.	.	2d/	.	.	.
.	.	.	.	1e	-o	.	.
2C/	.	.	.	.	.	.	.
=29-	=29-	=29-	=29-	=29-	=29-	=29-	=29-
1D	-o	.	.	2d/	.	.	.
.	.	.	.	1.e\l	.	.	.
1AA/l	.	.	.	.	.	.	.
.	.	.	.	.	.	.	.
*	*	*	*	*custos:F	*	*	*
=30||	=30||	=30||	=30||	=30||	=30||	=30||	=30||
!	!	!	!	!LO:LB:g=original	!	!LO:TX:a:t=Quia faecit,\ntacet.	!
0r	.	00.F\	Qu-	1F	Qu-	0ryy	.
*	*	*	*	*lig	*	*	*
.	.	.	.	1A	-ia	.	.
=31-	=31-	=31-	=31-	=31-	=31-	=31-	=31-
1F	Qu-	.	.	1c	.	0ryy	.
*lig	*	*	*	*Xlig	*	*	*
1A	-ia	.	.	1c	fae-	.	.
=32-	=32-	=32-	=32-	=32-	=32-	=32-	=32-
1c	.	.	.	1c	-cit	0ryy	.
*Xlig	*	*	*	*	*	*	*
1c	fae-	.	.	2r	.	.	.
.	.	.	.	2.F/	.	.	.
=33-	=33-	=33-	=33-	=33-	=33-	=33-	=33-
*	*	*lig	*	*	*	*	*
1c	-cit	0A	-ia	.	.	0ryy	.
.	.	.	.	4E/	.	.	.
.	.	.	.	2.F/	.	.	.
2r	.	.	.	.	.	.	.
.	.	.	.	4G/	.	.	.
*	*ij	*	*	*	*	*	*
2F/	Qu-	.	.	2A/	.	.	.
=34-	=34-	=34-	=34-	=34-	=34-	=34-	=34-
2E/	-ia	0c	.	2G/	.	0ryy	.
2F/	fae-	.	.	2.A/	.	.	.
*custos:C	*	*	*	*	*	*	*
!LO:LB:g=original	!	!	!	!	!	!	!
2C/	-cit	.	.	.	.	.	.
.	.	.	.	4B/	.	.	.
2.F/	.	.	.	2c/	.	.	.
*	*	*Xlig	*	*	*	*	*
=35-	=35-	=35-	=35-	=35-	=35-	=35-	=35-
.	.	0c	fae-	2A/	.	0ryy	.
4G/	.	.	.	.	.	.	.
2A\	.	.	.	2.c/	.	.	.
2F/	Qu-	.	.	.	.	.	.
.	.	.	.	4B/	.	.	.
2.c\	-ia	.	.	4A/	.	.	.
.	.	.	.	4G/	.	.	.
=36-	=36-	=36-	=36-	=36-	=36-	=36-	=36-
.	.	0c	-cit	2F/	.	0ryy	.
4B\	.	.	.	.	.	.	.
4A\	.	.	.	2.A/	.	.	.
4G\	.	.	.	.	.	.	.
2.F/	fae-	.	.	.	.	.	.
.	.	.	.	4G/	.	.	.
.	.	.	.	4F/	.	.	.
4G/	.	.	.	4E/	.	.	.
=37-	=37-	=37-	=37-	=37-	=37-	=37-	=37-
2A\	.	00r	.	2D/	.	0ryy	.
2D/	.	.	.	2.d\	.	.	.
1G	.	.	.	.	.	.	.
.	.	.	.	4c/	.	.	.
.	.	.	.	4B/	.	.	.
.	.	.	.	4A/	.	.	.
=38-	=38-	=38-	=38-	=38-	=38-	=38-	=38-
2E/	.	.	.	2G/	.	0ryy	.
2F/	.	.	.	1c	qu-	.	.
1D	.	.	.	.	.	.	.
.	.	.	.	2B/	-ia	.	.
=39-	=39-	=39-	=39-	=39-	=39-	=39-	=39-
2.C/	.	00r	.	2.c/	.	0ryy	.
4D/	.	.	.	4B/	.	.	.
1E	.	.	.	2G/	.	.	.
*	*	*	*	*custos:B	*	*	*
!	!	!	!	!LO:LB:g=original	!	!	!
.	.	.	.	2.B/	fae-	.	.
=40-	=40-	=40-	=40-	=40-	=40-	=40-	=40-
2C/	.	.	.	.	.	0ryy	.
.	.	.	.	4A/	.	.	.
2D/	.	.	.	1A	.	.	.
1BB	.	.	.	.	.	.	.
!	!	!	!	!LO:SIC:v:s=2G#/	!	!	!
.	.	.	.	2G/	.	.	.
=41-	=41-	=41-	=41-	=41-	=41-	=41-	=41-
1AA	-cit	1c	mi-	0A	-cit	0ryy	.
*	*Xij	*	*	*	*	*	*
1r	.	2c\	-hi	.	.	.	.
.	.	2c\	ma-	.	.	.	.
=42-	=42-	=42-	=42-	=42-	=42-	=42-	=42-
1F	mi-	1c	-gna	2A/	mi-	0ryy	.
.	.	.	.	2A/	-hi	.	.
2F/	-hi	0r	.	2.A/	mag-	.	.
2F/	ma-	.	.	.	.	.	.
.	.	.	.	4B/	.	.	.
=43-	=43-	=43-	=43-	=43-	=43-	=43-	=43-
2F/	-gna	.	.	2c\	.	0ryy	.
2D/	.	.	.	2d\	.	.	.
1G	.	1r	.	2e\	.	.	.
.	.	.	.	2.d\	.	.	.
=44-	=44-	=44-	=44-	=44-	=44-	=44-	=44-
2F/	qui	2r	.	.	.	0ryy	.
.	.	.	.	4c/	.	.	.
*	*	*custos:c	*	*	*	*	*
!	!	!LO:PB:g=original	!	!	!	!	!
2E/	.	2c\	qui	1c	.	.	.
1D	po-	1d	po-	.	.	.	.
.	.	.	.	2B/	na	.	.
*custos:C	*	*	*	*	*	*	*
=45-	=45-	=45-	=45-	=45-	=45-	=45-	=45-
!LO:LB:g=original	!	!	!	!	!	!	!
1.C	-tens	2.e\	-tens	1c	.	0ryy	.
.	.	4d\	.	.	.	.	.
.	.	2e\	.	1r	.	.	.
2BB/	.	2.d\	.	.	.	.	.
=46-	=46-	=46-	=46-	=46-	=46-	=46-	=46-
2C/	.	.	.	2r	.	0ryy	.
.	.	4c\	.	.	.	.	.
2E/	.	1c	eſt	2c/	qui	.	.
1D	.	.	.	1d	.	.	.
.	.	2B/	.	.	.	.	.
=47-	=47-	=47-	=47-	=47-	=47-	=47-	=47-
1C	eſt	2.c/	.	2.e\	po-	0ryy	.
.	.	8B/	.	4d\	-tens	.	.
.	.	8A/	.	.	.	.	.
1r	.	1G	.	2e\	.	.	.
.	.	.	.	2.d\	.	.	.
=48-	=48-	=48-	=48-	=48-	=48-	=48-	=48-
00r	.	2E/	.	.	.	0ryy	.
.	.	.	.	4c/	.	.	.
.	.	2F/	.	1c	.	.	.
.	.	1D	.	.	.	.	.
.	.	.	.	2B/	eſt	.	.
=49-	=49-	=49-	=49-	=49-	=49-	=49-	=49-
.	.	0C	.	1c	.	0ryy	.
.	.	.	.	2r	.	.	.
.	.	.	.	1c\	et	.	.
=50-	=50-	=50-	=50-	=50-	=50-	=50-	=50-
1.F	et	00r	.	.	.	0ryy	.
.	.	.	.	2c/	ſan-	.	.
.	.	.	.	1c	-ctu(m)	.	.
2F/	ſan-	.	.	.	.	.	.
=51-	=51-	=51-	=51-	=51-	=51-	=51-	=51-
1F	-ctu(m)	.	.	1.f	.	0ryy	.
2D/	.	.	.	.	.	.	.
2.G\	no-	.	.	2d/	.	.	.
=52-	=52-	=52-	=52-	=52-	=52-	=52-	=52-
.	.	00r	.	2.g\	no-	0ryy	.
4F/	-men	.	.	.	.	.	.
4E/	.	.	.	.	.	.	.
4D/	.	.	.	4f\	-m(en)	.	.
*	*	*	*	*custos:e	*	*	*
!	!	!	!	!LO:PB:g=original	!	!	!
2C/	.	.	.	4e/	.	.	.
.	.	.	.	4d/	.	.	.
2.F/	e-	.	.	1c\	e-	.	.
=53-	=53-	=53-	=53-	=53-	=53-	=53-	=53-
.	.	.	.	.	.	0ryy	.
4G/	.	.	.	.	.	.	.
4A\	.	.	.	1f	.	.	.
4B\	.	.	.	.	.	.	.
1G	.	.	.	.	.	.	.
.	.	.	.	2e\	.	.	.
=54-	=54-	=54-	=54-	=54-	=54-	=54-	=54-
0F	-uis	0.c	et	0f	-ius	0ryy	.
=55-	=55-	=55-	=55-	=55-	=55-	=55-	=55-
1.F	.	.	.	1r	.	0ryy	.
.	.	1c	ſan-	1.f	et	.	.
2F/	et	.	.	.	.	.	.
=56-	=56-	=56-	=56-	=56-	=56-	=56-	=56-
0F	ſan-	0c	-ctu(m)	.	.	0ryy	.
.	.	.	.	2f\	ſan-	.	.
.	.	.	.	0f	-ctu(m)	.	.
=57-	=57-	=57-	=57-	=57-	=57-	=57-	=57-
1D	-ctu(m)	0d	no-	.	.	0ryy	.
1.G	no-	.	.	1d	.	.	.
=58-	=58-	=58-	=58-	=58-	=58-	=58-	=58-
.	.	0B	-m(en)	1.g	no-	0ryy	.
4F/	-men	.	.	.	.	.	.
4E/	.	.	.	.	.	.	.
2E/	.	.	.	.	.	.	.
4D/	.	.	.	4f\	-m(en)	.	.
4C/	.	.	.	4e\	.	.	.
*custos:C	*	*	*	*	*	*	*
=59-	=59-	=59-	=59-	=59-	=59-	=59-	=59-
!LO:LB:g=original	!	!	!	!	!	!	!
1C	.	0c	e-	2e\	.	0ryy	.
.	.	.	.	4d\	.	.	.
.	.	.	.	4c\	.	.	.
1.F	e-	.	.	1c	e-	.	.
=60-	=60-	=60-	=60-	=60-	=60-	=60-	=60-
.	.	000A\l	-ius	1f	uis	0ryy	.
1D	.	.	.	.	.	.	.
.	.	.	.	1e	.	.	.
2C/	.	.	.	.	.	.	.
=61-	=61-	=61-	=61-	=61-	=61-	=61-	=61-
1D	.	.	.	1d	.	0ryy	.
2C/	.	.	.	2e\	.	.	.
1D/	.	.	.	2.f\	.	.	.
=62-	=62-	=62-	=62-	=62-	=62-	=62-	=62-
.	.	.	.	.	.	0ryy	.
.	.	.	.	4e/	.	.	.
2C/	.	.	.	1e	.	.	.
1D	-ius	.	.	.	.	.	.
.	.	.	.	2d/	.	.	.
=63-	=63-	=63-	=63-	=63-	=63-	=63-	=63-
0AA/l	.	.	.	0e\l	.	0ryy	.
=64||	=64||	=64||	=64||	=64||	=64||	=64||	=64||
!	!	!	!	!	!	!LO:LB:g=original	!
0F	Fae-	0F	Fae-	0c	Fae-	00.f\	Fae-
=65-	=65-	=65-	=65-	=65-	=65-	=65-	=65-
*	*	*lig	*	*	*	*	*
00D\	-cit	00A	-cit	00d	-cit	.	.
=66-	=66-	=66-	=66-	=66-	=66-	=66-	=66-
.	.	.	.	.	.	.	.
=67-	=67-	=67-	=67-	=67-	=67-	=67-	=67-
1C	po-	0c	.	1G	.	0e	cit
2.C/	-ten-	.	.	2r	.	.	.
.	.	.	.	1G/	po-	.	.
4D/	.	.	.	.	.	.	.
*	*	*Xlig	*	*	*	*	*
=68-	=68-	=68-	=68-	=68-	=68-	=68-	=68-
2E/	.	1c	po-	.	.	00r	.
*	*	*	*	*custos:A	*	*	*
!	!	!	!	!LO:LB:g=original	!	!	!
1F	.	.	.	1A	-ten-	.	.
*	*	*custos:c	*	*	*	*	*
!	!	!LO:LB:g=original	!	!	!	!	!
.	.	2c\	-ten-	.	.	.	.
2E/	-ti-	2c\	-ti-	2G/	-ti-	.	.
=69-	=69-	=69-	=69-	=69-	=69-	=69-	=69-
2.F/	-a(m)	0c	-a(m)	2A/	-a(m)	.	.
.	.	.	.	1F	.	.	.
4G/	.	.	.	.	.	.	.
2A\	.	.	.	.	.	.	.
2G\	.	.	.	2E/	.	.	.
=70-	=70-	=70-	=70-	=70-	=70-	=70-	=70-
2.A\	.	00r	.	2F/	.	00r	.
.	.	.	.	2c/	.	.	.
4G/	.	.	.	.	.	.	.
4F/	.	.	.	2A/	.	.	.
4E/	.	.	.	.	.	.	.
2F/	.	.	.	2.d/	.	.	.
=71-	=71-	=71-	=71-	=71-	=71-	=71-	=71-
2.G/	.	.	.	.	.	.	.
.	.	.	.	4c/	.	.	.
.	.	.	.	4B/	.	.	.
4F/	.	.	.	4A/	.	.	.
4E/	.	.	.	2G/	.	.	.
4D/	.	.	.	.	.	.	.
2F/	.	.	.	2.d/	.	.	.
*custos:E	*	*	*	*	*	*	*
=72-	=72-	=72-	=72-	=72-	=72-	=72-	=72-
!LO:LB:g=original	!	!	!	!	!	!	!
2E/	.	00r	.	.	.	1r	.
.	.	.	.	4c/	.	.	.
2C/	.	.	.	1c	.	.	.
1D	.	.	.	.	.	1f	po-
.	.	.	.	2B/	.	.	.
=73-	=73-	=73-	=73-	=73-	=73-	=73-	=73-
0C	.	.	.	1c	.	2e/	-ten-
.	.	.	.	.	.	2.g/	.
.	.	.	.	2r	.	.	.
.	.	.	.	.	.	4f/	.
.	.	.	.	2.c/	in	4e/	.
.	.	.	.	.	.	4d/	.
=74-	=74-	=74-	=74-	=74-	=74-	=74-	=74-
00r	.	00r	.	.	.	2c/	.
.	.	.	.	4d/	bra-	.	.
.	.	.	.	2e\	-chi-	2.cc\	.
.	.	.	.	2c/	-o	.	.
.	.	.	.	.	.	4b\	.
.	.	.	.	2.d/	.	2.b\	.
=75-	=75-	=75-	=75-	=75-	=75-	=75-	=75-
.	.	.	.	.	.	.	.
.	.	.	.	4c/	.	4a\	.
.	.	.	.	2A/	.	1a	.
.	.	.	.	1B	ſu-	.	.
!	!	!	!	!	!	!LO:SIC:v:s=2g#/	!
.	.	.	.	.	.	2g/	-ti-
=76-	=76-	=76-	=76-	=76-	=76-	=76-	=76-
1r	.	0r	.	0A	-o	0a	-am
2r	.	.	.	.	.	.	.
2.F/	in	.	.	.	.	.	.
=77-	=77-	=77-	=77-	=77-	=77-	=77-	=77-
.	.	1r	.	00r	.	00r	.
4G/	.	.	.	.	.	.	.
2A\	bra-	.	.	.	.	.	.
2F/	-chi-	2r	.	.	.	.	.
2.G\	-o	1c\	in	.	.	.	.
=78-	=78-	=78-	=78-	=78-	=78-	=78-	=78-
.	.	.	.	.	.	.	.
4F/	ſu-	.	.	.	.	.	.
2D/	-o	2d\	bra-	.	.	.	.
1E	.	1e	-chi-	.	.	.	.
=79-	=79-	=79-	=79-	=79-	=79-	=79-	=79-
1D	.	1d	-o	2r	.	2.f/	in
.	.	.	.	2f\	diſ-	.	.
.	.	.	.	.	.	4g/	.
00r	.	2c\	.	2e\	-per-	2a/	bra-
.	.	1d\	.	1f\	-ſit	2b\	-chi-
=80-	=80-	=80-	=80-	=80-	=80-	=80-	=80-
.	.	.	.	.	.	2a/	-o
.	.	4c\	ſu-	2d\	.	1dd	.
.	.	4B\	-o	.	.	.	.
.	.	1A	.	1e	.	.	.
.	.	.	.	.	.	2cc\	ſu-
*	*	*	*	*custos:f	*	*	*
=81-	=81-	=81-	=81-	=81-	=81-	=81-	=81-
!	!	!	!	!LO:LB:g=original	!	!	!
.	.	1d	.	1f	.	2dd\	.
.	.	.	.	.	.	2ff\	-o
2r	.	2c\	.	2g\	ſu-	2ee\	.
2G/	diſ-	2B\	.	1g\	-per-	1dd\	.
=82-	=82-	=82-	=82-	=82-	=82-	=82-	=82-
*	*	*lig	*	*	*	*	*
1A	per-	1c	.	.	.	.	.
.	.	.	.	2f\	.	1cc	.
1G	-ſit	1d	.	1g	.	.	.
.	.	.	.	.	.	2b/	.
*	*	*Xlig	*	*	*	*	*
=83-	=83-	=83-	=83-	=83-	=83-	=83-	=83-
1C	.	0c	.	1e	-bos	0cc	.
2C/	.	.	.	0r	.	.	.
1F\	ſu-	.	.	.	.	.	.
=84-	=84-	=84-	=84-	=84-	=84-	=84-	=84-
.	.	1c	diſ-	.	.	1r	.
2E/	-per-	.	.	.	.	.	.
*	*	*	*	*	*	*custos:cc	*
!	!	!	!	!	!	!LO:LB:g=original	!
0F	-bos	2A/	-per-	1c	men-	1cc	diſ-
.	.	1c\	-ſit	.	.	.	.
=85-	=85-	=85-	=85-	=85-	=85-	=85-	=85-
.	.	.	.	2d/	-te	1cc	-per-
.	.	4B/	ſu-	1f	.	.	.
.	.	4A/	.	.	.	.	.
1C	.	1G	.	.	.	2cc\	-ſit
.	.	.	.	2e\	.	2cc\	ſu-
=86-	=86-	=86-	=86-	=86-	=86-	=86-	=86-
0F	.	2.F/	per-	0f	cor-	1cc	-per-
.	.	4G/	.	.	.	.	.
.	.	2A/	.	.	.	1cc	-bos
.	.	2F/	-bos	.	.	.	.
=87-	=87-	=87-	=87-	=87-	=87-	=87-	=87-
1.F	men-	1c	.	00a	-dis	1r	.
*	*	*custos:f	*	*	*	*	*
!	!	!LO:LB:g=original	!	!	!	!	!
*	*	*clefC3	*	*	*	*	*
.	.	2f\	men-	.	.	0cc	men-
2G/	-te	2f\	-tes	.	.	.	.
=88-	=88-	=88-	=88-	=88-	=88-	=88-	=88-
1A	.	1e	.	.	.	.	.
1F	cor-	1f	cor-	.	.	1cc	-te
=89-	=89-	=89-	=89-	=89-	=89-	=89-	=89-
0B	-dis	0d	-dis	1.f	ſu-	0dd	cor-
.	.	.	.	1g\	.	.	.
=90-	=90-	=90-	=90-	=90-	=90-	=90-	=90-
0G	ſu-	1.g	ſu-	.	.	0b	-d(i)ſ
.	.	.	.	4f\	.	.	.
.	.	.	.	4e\	.	.	.
.	.	.	.	2d\	.	.	.
.	.	4f\	.	1e\	.	.	.
.	.	4e\	.	.	.	.	.
=91-	=91-	=91-	=91-	=91-	=91-	=91-	=91-
0A	.	1.e	.	.	.	0cc	ſu-
.	.	.	.	4d/	.	.	.
.	.	.	.	4c/	-j	.	.
*	*	*	*	*	*ij	*	*
.	.	.	.	1c	su-	.	.
.	.	1f\	-i	.	.	.	.
=92-	=92-	=92-	=92-	=92-	=92-	=92-	=92-
0.F	.	.	.	1.f	.	1a	-j
.	.	4e\	ſu-	.	.	.	.
.	.	4d\	.	.	.	.	.
.	.	1c	.	.	.	2r	.
.	.	.	.	4e\	.	1cc\	cor-
.	.	.	.	4d\	.	.	.
=93-	=93-	=93-	=93-	=93-	=93-	=93-	=93-
.	.	1A	.	2c/	.	.	.
.	.	.	.	2d/	.	4b\	.
.	.	.	.	.	.	4a\	-d(i)ſ
1E	.	2B/	.	1e	.	2g/	.
.	.	2G/	.	.	.	2.b\	.
=94-	=94-	=94-	=94-	=94-	=94-	=94-	=94-
2D/	.	1A	.	2f\	.	.	.
.	.	.	.	.	.	4a/	ſu-
2F/	.	.	.	2d\	.	1a	-i
1E	.	1B	.	0.e\l	j	.	.
*	*	*	*	*	*Xij	*	*
.	.	.	.	.	.	2g/	.
=95-	=95-	=95-	=95-	=95-	=95-	=95-	=95-
0AA/l	-j	0A/l	-i	.	.	0a\l	.
*custos:F	*	*	*	*custos:c	*	*	*
=96||	=96||	=96||	=96||	=96||	=96||	=96||	=96||
!LO:PB:g=original	!	!	!	!LO:LB:g=original	!	!	!
1.F	E-	00r	.	0c	E-	0f	E-
2E/	-ſu-	.	.	.	.	.	.
=97-	=97-	=97-	=97-	=97-	=97-	=97-	=97-
1F	-ri-	.	.	1c	-ſu-	0a	-ſu-
1D	-en-	.	.	1d	-ri-	.	.
=98-	=98-	=98-	=98-	=98-	=98-	=98-	=98-
0C	-tes	0r	.	0e	-en-	1cc	-ri-
.	.	.	.	.	.	1cc	-en-
=99-	=99-	=99-	=99-	=99-	=99-	=99-	=99-
00r	.	0F	E-	0f	-tes	00cc	-tes
=100-	=100-	=100-	=100-	=100-	=100-	=100-	=100-
.	.	0A	-ſu-	00e	.	.	.
=101-	=101-	=101-	=101-	=101-	=101-	=101-	=101-
0r	.	0c	-ri-	.	.	00r	.
=102-	=102-	=102-	=102-	=102-	=102-	=102-	=102-
0BB	e-	1d	-en-	00r	.	.	.
.	.	1d	-tes	.	.	.	.
=103-	=103-	=103-	=103-	=103-	=103-	=103-	=103-
0D	-ſu-	1.d	.	.	.	00r	.
.	.	4c/	.	.	.	.	.
.	.	4B/	.	.	.	.	.
=104-	=104-	=104-	=104-	=104-	=104-	=104-	=104-
0F	-ri-	2.A/	.	00r	.	.	.
.	.	4B/	.	.	.	.	.
*	*	*custos:c	*	*	*	*	*
!	!	!LO:LB:g=original	!	!	!	!	!
.	.	2c/	.	.	.	.	.
.	.	2d/	.	.	.	.	.
=105-	=105-	=105-	=105-	=105-	=105-	=105-	=105-
0F	-en-	2c/	.	.	.	00r	.
.	.	2.f\	.	.	.	.	.
.	.	4e\	.	.	.	.	.
.	.	4d/	.	.	.	.	.
.	.	4c/	.	.	.	.	.
=106-	=106-	=106-	=106-	=106-	=106-	=106-	=106-
0F	-tes	1d	.	0r	.	.	.
.	.	1c	.	.	.	.	.
=107-	=107-	=107-	=107-	=107-	=107-	=107-	=107-
0r	.	0A	.	1.e	in	0cc	in
.	.	.	.	2f\	ple-	.	.
*	*	*	*	*	*	*custos:cc	*
=108-	=108-	=108-	=108-	=108-	=108-	=108-	=108-
!	!	!	!	!	!	!LO:LB:g=original	!
00r	.	00r	.	2e\	-uit	0cc	ple-
.	.	.	.	2.a\	.	.	.
.	.	.	.	4g\	.	.	.
.	.	.	.	4f\	.	.	.
.	.	.	.	4e\	.	.	.
=109-	=109-	=109-	=109-	=109-	=109-	=109-	=109-
.	.	.	.	2f\	.	0cc	-uit
.	.	.	.	2e\	.	.	.
.	.	.	.	2c/	bo-	.	.
.	.	.	.	2.f\	-nis	.	.
=110-	=110-	=110-	=110-	=110-	=110-	=110-	=110-
00r	.	0r	.	.	.	0dd	bo-
.	.	.	.	4e\	.	.	.
.	.	.	.	4d/	.	.	.
.	.	.	.	4c/	.	.	.
.	.	.	.	2.B/	.	.	.
.	.	.	.	4A/	.	.	.
=111-	=111-	=111-	=111-	=111-	=111-	=111-	=111-
.	.	1r	.	1c	.	0cc	-nis
.	.	1c	im-	2A/	.	.	.
.	.	.	.	2c/	.	.	.
=112-	=112-	=112-	=112-	=112-	=112-	=112-	=112-
0F	im-	2A/	-ple-	2d/	.	0r	.
.	.	2c/	-uit	2c/	.	.	.
.	.	2d/	.	2.A/	.	.	.
.	.	2c/	.	.	.	.	.
.	.	.	.	4B/	.	.	.
=113-	=113-	=113-	=113-	=113-	=113-	=113-	=113-
0F	-ple-	2.A/	.	2c/	.	00r	.
.	.	.	.	2.F/	.	.	.
.	.	4B/	.	.	.	.	.
.	.	2c/	.	.	.	.	.
.	.	.	.	4G/	.	.	.
.	.	2.F/	.	4A/	.	.	.
.	.	.	.	4B/	.	.	.
*	*	*	*	*custos:c	*	*	*
=114-	=114-	=114-	=114-	=114-	=114-	=114-	=114-
!	!	!	!	!LO:LB:g=original	!	!	!
0F	-uit	.	.	2c/	.	.	.
.	.	4G/	.	.	.	.	.
.	.	4A/	.	2d/	.	.	.
.	.	4B/	.	.	.	.	.
.	.	2c/	.	2c/	.	.	.
.	.	2.d/	bo-	1f\	.	.	.
=115-	=115-	=115-	=115-	=115-	=115-	=115-	=115-
0G	bo-	.	.	.	.	00r	.
.	.	4c/	-nis	.	.	.	.
.	.	4B/	.	4e\	.	.	.
.	.	4A/	.	4d\	.	.	.
.	.	1B	.	1e	.	.	.
=116-	=116-	=116-	=116-	=116-	=116-	=116-	=116-
0F	-nis	1c	.	0f	.	.	.
.	.	1r	.	.	.	.	.
=117-	=117-	=117-	=117-	=117-	=117-	=117-	=117-
00r	.	2.c/	et	0r	.	0cc	et
.	.	4d/	.	.	.	.	.
*	*	*custos:e	*	*	*	*	*
!	!	!LO:LB:g=original	!	!	!	!	!
.	.	2e\	di-	.	.	.	.
.	.	2f\	-ui-	.	.	.	.
=118-	=118-	=118-	=118-	=118-	=118-	=118-	=118-
.	.	2e\	-tes	1r	.	1cc	di-
.	.	2c/	.	.	.	.	.
.	.	1r	.	2.c/	et	1cc	-ui-
.	.	.	.	4d/	.	.	.
=119-	=119-	=119-	=119-	=119-	=119-	=119-	=119-
00r	.	0r	.	2e\	di-	00cc	-tes
.	.	.	.	2f\	-ui-	.	.
.	.	.	.	2e\	-tes	.	.
.	.	.	.	2c/	.	.	.
=120-	=120-	=120-	=120-	=120-	=120-	=120-	=120-
.	.	1f	et	00r	.	.	.
.	.	2c/	di-	.	.	.	.
.	.	2.f\	.	.	.	.	.
=121-	=121-	=121-	=121-	=121-	=121-	=121-	=121-
0F	et	.	.	.	.	00r	.
.	.	4e\	.	.	.	.	.
.	.	4d\	.	.	.	.	.
.	.	4c\	-ui-	.	.	.	.
.	.	1d	-tes	.	.	.	.
=122-	=122-	=122-	=122-	=122-	=122-	=122-	=122-
0F	di-	1c	.	1f	di-	.	.
.	.	1r	.	2c/	-mi-	.	.
.	.	.	.	2.f\	-ſit	.	.
=123-	=123-	=123-	=123-	=123-	=123-	=123-	=123-
0F	-ui-	00r	.	.	.	00r	.
.	.	.	.	4e\	.	.	.
.	.	.	.	4d/	.	.	.
.	.	.	.	4c/	.	.	.
.	.	.	.	2d/	.	.	.
.	.	.	.	2c/	.	.	.
=124-	=124-	=124-	=124-	=124-	=124-	=124-	=124-
0F	-tes	.	.	2.A/	in-	.	.
.	.	.	.	4B/	-a-	.	.
.	.	.	.	2c/	-nes	.	.
.	.	.	.	2d/	.	.	.
=125-	=125-	=125-	=125-	=125-	=125-	=125-	=125-
00r	.	00r	.	2e\	.	0cc	di-
.	.	.	.	2f\	.	.	.
.	.	.	.	2e\	.	.	.
.	.	.	.	1a\	.	.	.
=126-	=126-	=126-	=126-	=126-	=126-	=126-	=126-
.	.	.	.	.	.	0cc	-mi-
.	.	.	.	4g\	.	.	.
.	.	.	.	4f\	.	.	.
.	.	.	.	1e	.	.	.
*	*	*	*	*custos:d	*	*	*
=127-	=127-	=127-	=127-	=127-	=127-	=127-	=127-
*	*	*	*	*	*ij	*	*
!	!	!	!	!LO:PB:g=original	!	!	!
00r	.	0r	.	2.d/	di-	0dd	-ſit
.	.	.	.	4e/	-mi-	.	.
.	.	.	.	2f\	-ſit	.	.
.	.	.	.	1g\	.	.	.
=128-	=128-	=128-	=128-	=128-	=128-	=128-	=128-
.	.	0G	et	.	.	0b	i-
.	.	.	.	4f\	.	.	.
.	.	.	.	4e\	.	.	.
.	.	.	.	1d	.	.	.
=129-	=129-	=129-	=129-	=129-	=129-	=129-	=129-
0r	.	1A	di-	1c	.	0cc	-na-
.	.	1F	-ui-	2A/	.	.	.
.	.	.	.	2.c/	.	.	.
=130-	=130-	=130-	=130-	=130-	=130-	=130-	=130-
0F	di-	1f	-tes	.	.	00a	-nes
.	.	.	.	4B/	.	.	.
.	.	.	.	2c/	.	.	.
.	.	2r	.	2.d/	.	.	.
.	.	2f\	di-	.	.	.	.
.	.	.	.	4c/	.	.	.
=131-	=131-	=131-	=131-	=131-	=131-	=131-	=131-
0F	-mi-	2d/	-mi-	2.A/	in-	.	.
.	.	2.f\	-ſit	.	.	.	.
.	.	.	.	4B/	-a-	.	.
.	.	.	.	2c/	-nes	.	.
*	*	*	*	*	*Xij	*	*
.	.	4e\	.	.	.	.	.
.	.	4d/	.	1d\	.	.	.
.	.	4c/	.	.	.	.	.
=132-	=132-	=132-	=132-	=132-	=132-	=132-	=132-
0G	-ſit	2.B/	.	.	.	00r	.
.	.	.	.	2e/	.	.	.
.	.	4c/	in-	.	.	.	.
.	.	2d/	a-	2d/	.	.	.
.	.	2.e\	-nes	2.g\	.	.	.
=133-	=133-	=133-	=133-	=133-	=133-	=133-	=133-
0E	in-	.	.	.	.	.	.
.	.	4d/	.	4f\	.	.	.
.	.	4c/	.	4e\	.	.	.
.	.	4B/	.	4d\	.	.	.
.	.	2c/	.	2c/	.	.	.
*	*	*custos:G	*	*	*	*	*
!	!	!LO:PB:g=original	!	!	!	!	!
.	.	2G/	.	2B/	.	.	.
=134-	=134-	=134-	=134-	=134-	=134-	=134-	=134-
0F	-a-	2r	.	2A/	.	00r	.
.	.	2.A/	di-	1d	.	.	.
.	.	4G/	-mi-	.	.	.	.
.	.	2A/	-ſit	2c/	.	.	.
=135-	=135-	=135-	=135-	=135-	=135-	=135-	=135-
0D	-nes	2B/	.	1d	.	.	.
.	.	2A/	.	.	.	.	.
.	.	2.d/	.	2A/	di-	.	.
.	.	.	.	2B/	-mi-	.	.
.	.	4e/	.	.	.	.	.
=136-	=136-	=136-	=136-	=136-	=136-	=136-	=136-
0r	.	2f\	.	2A/	-ſit	00r	.
.	.	2.B/	in	2.d\	in-	.	.
.	.	4c/	.	4e\	.	.	.
*	*	*	*	*custos:f	*	*	*
!	!	!	!	!LO:LB:g=original	!	!	!
.	.	2d/	a-	2f\	-a-	.	.
*custos:C	*	*	*	*	*	*	*
=137-	=137-	=137-	=137-	=137-	=137-	=137-	=137-
*	*ij	*	*	*	*	*	*
!LO:LB:g=original	!	!	!	!	!	!	!
1C	di-	2c/	.	4g\	-nes	.	.
.	.	.	.	4f\	.	.	.
.	.	4B/	-nes	4e\	.	.	.
.	.	4A/	.	4d\	.	.	.
1C	-mi-	1G	.	1e	.	.	.
=138-	=138-	=138-	=138-	=138-	=138-	=138-	=138-
*	*	*lig	*	*	*	*	*
1D	-ſit	1.F	.	1f	.	00r	.
1BB	in-	.	.	1d	di-	.	.
.	.	1G/	.	.	.	.	.
*	*	*Xlig	*	*	*	*	*
=139-	=139-	=139-	=139-	=139-	=139-	=139-	=139-
0C	-a-	.	.	1.c	-mi-	.	.
.	.	1A	.	.	.	.	.
.	.	2G/	.	2g\	-ſit	.	.
=140-	=140-	=140-	=140-	=140-	=140-	=140-	=140-
00AA/l	-nes	00A/l	.	2c/	in-	00a\l	.
*	*Xij	*	*	*	*	*	*
.	.	.	.	1e	-a-	.	.
.	.	.	.	2d/	-nes	.	.
=141-	=141-	=141-	=141-	=141-	=141-	=141-	=141-
.	.	.	.	0e\l	.	.	.
!LO:LB:g=original	!	!	!	!	!	!	!
=142||	=142||	=142||	=142||	=142||	=142||	=142||	=142||
00r	.	00F	Si-	1.f	Si-	0r	.
.	.	.	.	4e/	-cut	.	.
.	.	.	.	4d/	.	.	.
=143-	=143-	=143-	=143-	=143-	=143-	=143-	=143-
.	.	.	.	1c	.	1.f	Si-
.	.	.	.	1f	.	.	.
.	.	.	.	.	.	4e/	-cut
.	.	.	.	.	.	4d/	.
=144-	=144-	=144-	=144-	=144-	=144-	=144-	=144-
*	*	*lig	*	*	*	*	*
0r	.	0A	-cut	2.e\	.	1c	.
.	.	.	.	4d/	.	.	.
.	.	.	.	2c/	.	1f	.
.	.	.	.	4B/	.	.	.
.	.	.	.	4A/	.	.	.
=145-	=145-	=145-	=145-	=145-	=145-	=145-	=145-
0C	Si-	0c	.	0G	.	0e	.
*	*	*Xlig	*	*	*	*	*
=146-	=146-	=146-	=146-	=146-	=146-	=146-	=146-
*lig	*	*	*	*	*	*	*
0E	-cut	00r	.	1.G	.	1.g	.
.	.	.	.	2A/	.	4f/	.
.	.	.	.	.	.	4e/	.
=147-	=147-	=147-	=147-	=147-	=147-	=147-	=147-
0G	.	.	.	2B/	.	1d	.
.	.	.	.	2c/	.	.	.
.	.	.	.	1d	.	0g	ſi-
*Xlig	*	*	*	*	*	*	*
=148-	=148-	=148-	=148-	=148-	=148-	=148-	=148-
0r	.	0c	lo-	0e	.	.	.
.	.	.	.	.	.	1g	-cut
*	*	*	*	*	*	*custos:a	*
=149-	=149-	=149-	=149-	=149-	=149-	=149-	=149-
!	!	!	!	!	!	!LO:LB:g=original	!
1F	lo-	1c	-qu-	1f	lo-	1a	lo-
2F/	-qu-	1c	-utus	2f\	-qu-	2a/	-qu-
2F/	-utus	.	.	2f\	-ut(us)	2a/	-utus
*	*	*	*	*custos:f	*	*	*
=150-	=150-	=150-	=150-	=150-	=150-	=150-	=150-
!	!	!	!	!LO:LB:g=original	!	!	!
0F	e(ſt)	0c	e(ſt)	0f	eſt	0a	eſt
=151-	=151-	=151-	=151-	=151-	=151-	=151-	=151-
00r	.	00r	.	1f	.	2r	.
.	.	.	.	.	.	2a/	.
.	.	.	.	1e	.	2g/	.
.	.	.	.	.	.	1cc\	.
=152-	=152-	=152-	=152-	=152-	=152-	=152-	=152-
.	.	.	.	0d	.	.	.
.	.	.	.	.	.	2b\	.
.	.	.	.	.	.	2a/	.
.	.	.	.	.	.	4g/	.
.	.	.	.	.	.	4f/	.
*	*	*custos:c	*	*	*	*	*
=153-	=153-	=153-	=153-	=153-	=153-	=153-	=153-
!	!	!LO:LB:g=original	!	!	!	!	!
1C	ad	0c	ad	1G	.	0e	.
2.C/	pa-	.	.	2r	.	.	.
.	.	.	.	1G/	.	.	.
4D/	-tres	.	.	.	.	.	.
=154-	=154-	=154-	=154-	=154-	=154-	=154-	=154-
2E/	.	1c	pa-	.	.	1r	.
2.F/	.	.	.	1A	ad	.	.
.	.	1c	-tres	.	.	1g	ad
8E/	.	.	.	.	.	.	.
8D/	no-	.	.	.	.	.	.
2E/	.	.	.	2G/	pa-	.	.
=155-	=155-	=155-	=155-	=155-	=155-	=155-	=155-
1D	-ſtros	00d	.	1A	-tres	1f	pa-
*	*ij	*	*	*	*	*	*
0.G	ad	.	.	2.B/	.	1d	-tres
.	.	.	.	4c/	no-	.	.
=156-	=156-	=156-	=156-	=156-	=156-	=156-	=156-
.	.	.	.	4d/	.	0g	.
.	.	.	.	4G/	.	.	.
.	.	.	.	1c	.	.	.
.	.	.	.	2B/	.	.	.
=157-	=157-	=157-	=157-	=157-	=157-	=157-	=157-
0C	pa-	1.e	no-	1c	-ſtros	1.g	no-
.	.	.	.	0g	.	.	.
.	.	4d/	-ſtros	.	.	2a/	-ſtros
.	.	4c/	.	.	.	.	.
=158-	=158-	=158-	=158-	=158-	=158-	=158-	=158-
1G	-tres	1d	.	.	.	1b	.
2C/	no-	1e	.	1g	.	1cc	.
1c\	.	.	.	.	.	.	.
=159-	=159-	=159-	=159-	=159-	=159-	=159-	=159-
.	.	2.f\	.	1r	.	1dd	.
2B\	-ſtros	.	.	.	.	.	.
*	*Xij	*	*	*	*	*	*
.	.	8e/	.	.	.	.	.
.	.	8d/	.	.	.	.	.
*custos:c	*	*	*	*	*	*	*
!LO:LB:g=original	!	!	!	!	!	!	!
2c\	.	2e\	.	2r	.	2cc\	.
2B\	.	2f\	.	2d/	ad	2.dd\	.
=160-	=160-	=160-	=160-	=160-	=160-	=160-	=160-
2G/	.	2g\	.	2e\	.	.	.
.	.	.	.	.	.	4cc\	.
2A\	.	2c/	.	2f\	.	1cc	.
1G	.	1d	.	1g	.	.	.
.	.	.	.	.	.	2b\	.
=161-	=161-	=161-	=161-	=161-	=161-	=161-	=161-
2.A\	.	0c	.	2.e\	pa-	0cc	.
4G/	.	.	.	4f\	-tres	.	.
2E/	.	.	.	2g\	.	.	.
2.F/	.	.	.	2.a\	.	.	.
=162-	=162-	=162-	=162-	=162-	=162-	=162-	=162-
.	.	00r	.	.	.	00r	.
4G/	.	.	.	4g\	no-	.	.
2.A\	.	.	.	2e\	.	.	.
.	.	.	.	2f\	.	.	.
4F/	.	.	.	.	.	.	.
2.B\	.	.	.	1g\	-ſtros	.	.
=163-	=163-	=163-	=163-	=163-	=163-	=163-	=163-
.	.	.	.	.	.	.	.
4A\	.	.	.	.	.	.	.
2F/	.	.	.	1f	.	.	.
1G	.	.	.	.	.	.	.
.	.	.	.	2e\	.	.	.
*	*	*	*	*custos:f	*	*	*
=164-	=164-	=164-	=164-	=164-	=164-	=164-	=164-
!	!	!	!	!LO:LB:g=original	!	!	!
1.F	A-	1.c	A-	1.f	A-	1r	.
.	.	.	.	.	.	1.a	A-
2F/	-bra-	2c/	-bra-	2f\	-bra-	.	.
=165-	=165-	=165-	=165-	=165-	=165-	=165-	=165-
0F	-ha(m)	0c	-ha(m)	0f	-ha(m)	.	.
.	.	.	.	.	.	2a/	-bra-
*	*	*	*	*	*	*custos:a	*
!	!	!	!	!	!	!LO:PB:g=original	!
.	.	.	.	.	.	1a	-ham
=166-	=166-	=166-	=166-	=166-	=166-	=166-	=166-
2r	.	2r	.	2r	.	2r	.
2F/	et	2c/	et	2f\	et	2a/	et
2F/	ſe-	2c/	ſe-	2f\	ſe-	2a/	ſe-
2F/	-mi-	2c/	-mi-	2f\	-m(i)-	2a/	-mi-
=167-	=167-	=167-	=167-	=167-	=167-	=167-	=167-
2F/	-ni	2c/	-ni	2f\	-ni	2a/	-ni
2D/	e-	2d/	e-	2f\	e-	2a/	e-
1E	ius	2B/	.	2e\	-ius	1g	-ius
.	.	2G/	.	2c/	in	.	.
=168-	=168-	=168-	=168-	=168-	=168-	=168-	=168-
0D	in	1A	ius	2.c/	ſae-	2f/	in
.	.	.	.	.	.	1a	ſae-
.	.	.	.	8B/	.	.	.
.	.	.	.	8A/	.	.	.
*	*	*custos:F	*	*	*	*	*
!	!	!LO:LB:g=original	!	!	!	!	!
.	.	1F	in	1B	.	.	.
.	.	.	.	.	.	4g/	.
.	.	.	.	.	.	4f/	.
=169-	=169-	=169-	=169-	=169-	=169-	=169-	=169-
2.C/	ſae-	0G	ſae-	1c	.	2.e/	.
4D/	.	.	.	.	.	4f/	.
1E	-cu-	.	.	2B/	.	4g/	.
.	.	.	.	.	.	4a/	.
.	.	.	.	1e\	.	2.b/	.
=170-	=170-	=170-	=170-	=170-	=170-	=170-	=170-
1F	-la	1A	.	.	.	.	.
.	.	.	.	.	.	4a/	.
.	.	.	.	2d/	.	1a	.
1E	.	1B	-cu-	1e	-cu-	.	.
.	.	.	.	.	.	2g/	-cu-
=171-	=171-	=171-	=171-	=171-	=171-	=171-	=171-
0AA/l	.	0A\l	-la	0e\l	-la	0a\l	-la
=172||	=172||	=172||	=172||	=172||	=172||	=172||	=172||
*M3/1	*	*M3/1	*	*M3/1	*	*M3/1	*
!!LO:TX:t=P:problem:metrum C|3
!	!	!LO:N:vis=00	!	!LO:N:vis=00	!	!LO:N:vis=00	!
0F	Si-	00.r	.	00.r	.	00.r	.
1A	-cut	.	.	.	.	.	.
=173-	=173-	=173-	=173-	=173-	=173-	=173-	=173-
1.c	.	.	.	.	.	.	.
4B\	e-	.	.	.	.	.	.
4A\	-rat	.	.	.	.	.	.
1B	.	.	.	.	.	.	.
=174-	=174-	=174-	=174-	=174-	=174-	=174-	=174-
!	!	!LO:N:vis=00	!	!	!	!LO:N:vis=00	!
1.c	.	00.r	.	0c	Si-	00.r	.
4B\	.	.	.	.	.	.	.
4A\	.	.	.	.	.	.	.
1G	.	.	.	1e	-cut	.	.
=175-	=175-	=175-	=175-	=175-	=175-	=175-	=175-
1B	.	.	.	1.g	e-	.	.
0A	.	.	.	.	.	.	.
!	!	!	!	!LO:SIC:v:s=4f#\	!	!	!
.	.	.	.	4f\	.	.	.
.	.	.	.	4e\	.	.	.
!	!	!	!	!LO:SIC:v:s=1f#	!	!	!
.	.	.	.	1f	-rat	.	.
*	*	*	*	*custos:g	*	*	*
=176-	=176-	=176-	=176-	=176-	=176-	=176-	=176-
!	!	!	!	!LO:LB:g=original	!	!LO:N:vis=00	!
1.G	.	0G	Si-	0.g	.	00.r	.
4F/	.	.	.	.	.	.	.
4E/	.	.	.	.	.	.	.
1D	.	1B	-cut	.	.	.	.
=177-	=177-	=177-	=177-	=177-	=177-	=177-	=177-
*col	*	*	*	*	*	*	*
1F	.	1.d	e-	1.f	.	.	.
0E	.	.	.	.	.	.	.
*Xcol	*	*	*	*	*	*	*
.	.	4c/	-rat	4g\	.	.	.
.	.	4B/	.	4f\	.	.	.
.	.	1c	.	1g	.	.	.
=178-	=178-	=178-	=178-	=178-	=178-	=178-	=178-
0D	.	1.d	in	1G	.	0f	Si-
.	.	.	.	0A	.	.	.
.	.	2e\	prin-	.	.	.	.
1D	.	0f	.	.	.	1a	-cut
=179-	=179-	=179-	=179-	=179-	=179-	=179-	=179-
*col	*	*	*	*	*	*	*
1C	.	.	.	1F	.	1.cc	e-
0G	.	1e	-ci-	1G	.	.	.
*Xcol	*	*	*	*	*	*	*
.	.	.	.	.	.	4b/	.
.	.	.	.	.	.	4a/	.
.	.	1d	-pi-	1g	.	1b	.
=180-	=180-	=180-	=180-	=180-	=180-	=180-	=180-
0C	.	0c	-o	0e	.	0cc	-rat
*	*	*	*ij	*	*	*	*
1C	in	1e	Si-	1g	in	1cc	in
*	*	*	*	*	*	*custos:cc	*
=181-	=181-	=181-	=181-	=181-	=181-	=181-	=181-
!	!	!	!	!	!	!LO:LB:g=original	!
1C	prin-	1e	-cut	1g	prin-	1cc	prin-
1C	-ci-	1e	e-	1g	-ci-	1cc	-ci-
1C	-pi-	1e	-rat	1g	-pi-	1cc	-pi-
=182-	=182-	=182-	=182-	=182-	=182-	=182-	=182-
0.F	-o	0.c	in	1.f	-o	0.cc	-o
.	.	.	.	4e\	.	.	.
.	.	.	.	4d\	.	.	.
.	.	.	.	2c/	.	.	.
.	.	.	.	2d/	.	.	.
=183-	=183-	=183-	=183-	=183-	=183-	=183-	=183-
!	!	!	!	!	!	!LO:N:vis=00	!
0E	.	0c	prin-	0e	.	00.r	.
1F	.	1d	-ci-	1A	.	.	.
*custos:G	*	*	*	*	*	*	*
=184-	=184-	=184-	=184-	=184-	=184-	=184-	=184-
!LO:LB:g=original	!	!	!	!	!	!	!
1G	.	1e	.	1B	.	.	.
1.A	.	1.f	-pi-	1.c	.	.	.
2G/	.	2e\	-o	2B/	.	.	.
*	*	*custos:e	*	*	*	*	*
=185-	=185-	=185-	=185-	=185-	=185-	=185-	=185-
!	!	!LO:LB:g=original	!	!	!	!LO:N:vis=0	!
1E	.	0e	.	1G	.	0.r	.
*	*	*	*Xij	*	*	*	*
1.F	.	.	.	1.A	.	.	.
.	.	1d	.	.	.	.	.
4E/	.	.	.	2B/	.	.	.
4D/	.	.	.	.	.	.	.
=186-	=186-	=186-	=186-	=186-	=186-	=186-	=186-
0C	.	0e	et	0c	.	1.g	et
.	.	.	.	.	.	2a/	nu(n)c
1G	et	1d	nu(n)c	1r	.	1b	.
=187-	=187-	=187-	=187-	=187-	=187-	=187-	=187-
1A	nunc	1c	et	0.r	.	1.cc	et
0F	.	1.f	ſem-	.	.	.	.
.	.	.	.	.	.	4b\	.
.	.	.	.	.	.	4a\	.
.	.	.	.	.	.	1b	.
.	.	2e\	-per	.	.	.	.
=188-	=188-	=188-	=188-	=188-	=188-	=188-	=188-
1G	.	1d	.	1g	et	1b	.
1A	et	1c	.	1e	nu(n)c	1.a	ſem-
1F	ſem-	1d	.	1f	et	.	.
.	.	.	.	.	.	2g/	.
*	*	*	*	*custos:d	*	*	*
=189-	=189-	=189-	=189-	=189-	=189-	=189-	=189-
*col	*	*	*	*	*	*	*
!	!	!	!	!LO:PB:g=original	!	!	!
1G	per	1B	.	0.d	ſem-	0g	-per
0D	.	0A	.	.	.	.	.
*Xcol	*	*	*	*	*	*	*
.	.	.	.	.	.	1f	.
=190-	=190-	=190-	=190-	=190-	=190-	=190-	=190-
*	*	*lig	*	*	*	*	*
0.E	.	0.G	.	1B	-per	0g	.
.	.	.	.	1c	.	.	.
.	.	.	.	1B	.	1r	.
=191-	=191-	=191-	=191-	=191-	=191-	=191-	=191-
0.C	.	0.c	.	0.e	.	1.cc	et
.	.	.	.	.	.	2dd\	nu(n)c
.	.	.	.	.	.	1ee	ſaem-
*	*	*Xlig	*	*	*	*	*
=192-	=192-	=192-	=192-	=192-	=192-	=192-	=192-
1D	.	1A	.	1.d	.	1.ff	.
0BB	.	0d	.	.	.	.	.
.	.	.	.	2c/	.	4ee\	.
.	.	.	.	.	.	4dd\	.
.	.	.	.	2B/	.	1ff	.
.	.	.	.	2A/	.	.	.
=193-	=193-	=193-	=193-	=193-	=193-	=193-	=193-
*	*	*col	*	*	*	*	*
*col	*	*lig	*	*	*	*	*
1C	.	1c	.	1G	.	1ee	.
1G	.	1B	.	1g	.	1.dd	.
*lig	*	*	*	*	*	*	*
0A	.	0c	.	1e	.	.	.
.	.	.	.	.	.	2cc\	.
=194-	=194-	=194-	=194-	=194-	=194-	=194-	=194-
.	.	.	.	1f	.	0cc	.
0G	.	0d	.	0g	.	.	.
*Xcol	*	*Xcol	*	*	*	*	*
*Xlig	*	*Xlig	*	*	*	*	*
.	.	.	.	.	.	1b	.
=195-	=195-	=195-	=195-	=195-	=195-	=195-	=195-
*M2/1	*	*M2/1	*	*M2/1	*	*M2/1	*
*met(C|)	*	*met(C|)	*	*met(C|)	*	*met(C|)	*
1C	.	1c	.	0e	.	0cc	-per
1r	.	1c	Et	.	.	.	.
=196-	=196-	=196-	=196-	=196-	=196-	=196-	=196-
1F	Et	1c	in	2r	.	1r	.
.	.	.	.	1f	et	.	.
*	*	*	*	*	*	*custos:cc	*
!	!	!	!	!	!	!LO:LB:g=original	!
1F	in	2c/	ſae-	.	.	1cc	et
.	.	2c/	-cu-	2f\	in	.	.
=197-	=197-	=197-	=197-	=197-	=197-	=197-	=197-
2F/	ſae-	1c	-la	2f\	ſae-	1cc	in
2F/	-cu-	.	.	2f\	-cu-	.	.
*custos:F	*	*	*	*	*	*	*
!LO:PB:g=original	!	!	!	!	!	!	!
1F	-la	0r	.	1f	-la	2cc\	ſae-
.	.	.	.	.	.	2cc\	-cu-
=198-	=198-	=198-	=198-	=198-	=198-	=198-	=198-
2E/	.	.	.	00r	.	0cc	-la
2.F/	.	.	.	.	.	.	.
.	.	1c	ſae-	.	.	.	.
4G/	.	.	.	.	.	.	.
1A\	.	.	.	.	.	.	.
=199-	=199-	=199-	=199-	=199-	=199-	=199-	=199-
.	.	0c	-cu-	.	.	00r	.
4G/	.	.	.	.	.	.	.
4F/	.	.	.	.	.	.	.
1E	.	.	.	.	.	.	.
*	*	*custos:d	*	*	*	*	*
=200-	=200-	=200-	=200-	=200-	=200-	=200-	=200-
!	!	!LO:LB:g=original	!	!	!	!	!
2D/	.	1d	-lo-	0r	.	.	.
2.G/	.	.	.	.	.	.	.
.	.	1B	-ru(m)	.	.	.	.
4F/	.	.	.	.	.	.	.
4E/	.	.	.	.	.	.	.
4D/	.	.	.	.	.	.	.
=201-	=201-	=201-	=201-	=201-	=201-	=201-	=201-
1C	.	0c	A-	1r	.	0r	.
1F	.	.	.	1f	ſae-	.	.
=202-	=202-	=202-	=202-	=202-	=202-	=202-	=202-
00r	.	00A\	-m(en)	2e\	-cu-	1r	.
.	.	.	.	2.f\	-lo-	.	.
.	.	.	.	.	.	1cc	ſae-
.	.	.	.	4g\	.	.	.
.	.	.	.	1a\	-ru(m)	.	.
=203-	=203-	=203-	=203-	=203-	=203-	=203-	=203-
.	.	.	.	.	.	0cc	-cu-
.	.	.	.	4g\	.	.	.
.	.	.	.	4f\	.	.	.
.	.	.	.	1e	.	.	.
*	*	*	*	*custos:d	*	*	*
=204-	=204-	=204-	=204-	=204-	=204-	=204-	=204-
!	!	!	!	!LO:LB:g=original	!	!	!
1D	ſae-	00r	.	1.d	.	0dd	-lo-
0G	-cu-	.	.	.	.	.	.
.	.	.	.	2.g\	A-	.	.
=205-	=205-	=205-	=205-	=205-	=205-	=205-	=205-
.	.	.	.	.	.	1b	-ru(m)
.	.	.	.	4f\	.	.	.
.	.	.	.	4e\	.	.	.
.	.	.	.	4d\	.	.	.
1A	-lo-	.	.	1c	.	1cc	A-
=206-	=206-	=206-	=206-	=206-	=206-	=206-	=206-
0F	-ru(m)	1.c	ſae-	00f	-men	0a	-m(en)
.	.	1.A/	-cu-	.	.	.	.
=207-	=207-	=207-	=207-	=207-	=207-	=207-	=207-
0D	.	.	.	.	.	2r	.
*	*	*	*	*	*	*	*ij
.	.	.	.	.	.	2.dd\	A-
.	.	1d	-lo-	.	.	.	.
.	.	.	.	.	.	4cc\	.
.	.	.	.	.	.	4b\	.
.	.	.	.	.	.	4a\	.
=208-	=208-	=208-	=208-	=208-	=208-	=208-	=208-
*lig	*	*	*	*	*	*	*
1E	A-	2B/	-ru(m)	1e	.	1g	.
.	.	1c	A-	.	.	.	.
1F	.	.	.	1r	.	2.a/	.
.	.	2d/	.	.	.	.	.
.	.	.	.	.	.	4b/	.
*Xlig	*	*	*	*	*	*	*
=209-	=209-	=209-	=209-	=209-	=209-	=209-	=209-
*	*	*	*	*	*ij	*	*
2.E/	.	0e	.	1.g	A-	2cc\	.
.	.	.	.	.	.	2.b\	.
4F/	.	.	.	.	.	.	.
2G/	.	.	.	.	.	.	.
.	.	.	.	.	.	4a\	.
1A\	.	.	.	2e\	.	2.cc\	.
=210-	=210-	=210-	=210-	=210-	=210-	=210-	=210-
.	.	2c/	.	1f	.	.	.
.	.	.	.	.	.	4b\	.
2D/	-men	2d/	.	.	.	1a	.
1E	.	1B	.	1e	.	.	.
.	.	.	.	.	.	2g/	.
=211-	=211-	=211-	=211-	=211-	=211-	=211-	=211-
0AA/l	.	0A/l	-men.	0e\l	-m(en)	0a\l	-m(en)
*	*	*	*	*	*Xij	*	*Xij
==	==	==	==	==	==	==	==
*-	*-	*-	*-	*-	*-	*-	*-
!!!system-decoration: [(s1,s2,s3,s4)]
!!!RDF**kern: i = editorial accidental
!!!RDF**kern: l = terminal long
!!!RDF**kern: > = above
!!!RDF**kern: < = below
!!!ENC: Katarzyna Serwa
!!!END: 2022-01-09
!!!ENC: Filip Voros
!!!END: 2022-01-08
